X: 08078
T: MONIKA'S HAMBO
C: Bob McQuillen 27 Sept 91
B: Bob's Note Book 8 #78
%R: hambo
Z: 2021 John Chambers <jc:trillian.mit.edu>
M: 3/4
L: 1/8
K: D
"^A"|: F>A |\
    "D"B2 A2 F>A | d2 A2 F>A | B2 A2 d>e | f2 d2 e>f |\
[1,3 "Em"g2 e>f e>d | "A7"c>B A2 e>f | g3 f g2 | e4 :|
[2,4 "Em"g2 e>f g>a | "D"f2 d3 B | "A7"A2 d2 c2 | c2 "D"d2 :|\
"^B"|: f>g | "D"a2 a>f d>A | "G"B2 "D"A2 f>g | a2 a>f d>e |
f4 \
[1,3 d>B | A2 d2 e>f | "Em"g2 e>f g>a | "A7"b2 a3 g | "D"f4 :|\
[2,4 g>a | "G"b2 g>a b>g | "D"a2 f2 f>a | "A7"(3(gag) f2 e2 | e2 "D"d2 :|
%%begintext align
%% This one's for
%% Monika Lauren Fallon. Linda and Joe's
%% other daughter (you've already met her sister
%% Katie in these pages). I haven't met Monika yet, but
%% Joe says she's super and that's good enough for me! Much
%% love to you, Monika, from Bob.
%%endtext
%%begintext align
%% [Bob asked us to "PLEASE! TRY THIS ONE AS A HAMBO",
%% so I thought I'd try it, and write it out as a hambo.
%% I agree that it works quite well, so I added dots to the
%% 8th-note pairs and delayed the cadences to show how you
%% might make the tune into a real hambo. JC]
%%endtext
